Origami/64x64/apps/plasma.svg

<svg width="64" height="64" version="1" xmlns="http://www.w3.org/2000/svg">
 <rect transform="matrix(0,-1,-1,0,0,0)" x="-60" y="-60" width="56" height="56" rx="28" ry="28" style="fill:#eba229"/>
 <g transform="translate(0,1.0000001)" style="opacity:.2">
  <g transform="matrix(-.125574 0 0 -.124584 47.532 50.164616)">
   <path transform="matrix(11.498,0,0,11.498,-135.83,-118.41)" d="m20.314 12.539c-0.83567 0.7607-1.5166 1.6303-1.7871 2.8809-0.53798 2.4879 0.77013 5.9992 6.0527 8.3926 4.9711 2.2523 5.9094 5.5908 5.2031 7.7656-0.71244 2.1934-3.3358 4.1732-7.4102 3.3359-0.43517-0.09181-0.86438-0.21026-1.2891-0.35156 1.0881 0.73142 4.0872 1.2861 6.068 0.79777 3.7616-0.92745 7.5687-2.6789 9.4984-6.6982 2.9574-6.5276 0.05302-14.246-6.4746-17.203-3.6091-1.6034-7.0252-1.4532-9.8613 1.0801z"/>
  </g>
  <path d="m44 18a4 4 0 0 1 -4 4 4 4 0 0 1 -4 -4 4 4 0 0 1 4 -4 4 4 0 0 1 4 4z"/>
  <path d="m50 26a4 4 0 0 1 -4 4 4 4 0 0 1 -4 -4 4 4 0 0 1 4 -4 4 4 0 0 1 4 4z"/>
  <path d="m52 36a4 4 0 0 1 -4 4 4 4 0 0 1 -4 -4 4 4 0 0 1 4 -4 4 4 0 0 1 4 4z"/>
 </g>
 <path d="M 32 4 C 16.488443 4 4 16.488 4 32 C 4 32.113556 4.0112848 32.224032 4.0175781 32.335938 C 4.3691112 17.134181 16.711164 5 32 5 C 47.288835 5 59.630889 17.134181 59.982422 32.335938 C 59.988693 32.224113 60 32.113448 60 32 C 60 16.488 47.511556 4 32 4 z" style="fill:#ffffff;opacity:.1"/>
 <g transform="matrix(-.125574 0 0 -.124584 47.532 50.164616)" style="fill:#3f3f3f">
  <path transform="matrix(11.498,0,0,11.498,-135.83,-118.41)" d="m20.314 12.539c-0.83567 0.7607-1.5166 1.6303-1.7871 2.8809-0.53798 2.4879 0.77013 5.9992 6.0527 8.3926 4.9711 2.2523 5.9094 5.5908 5.2031 7.7656-0.71244 2.1934-3.3358 4.1732-7.4102 3.3359-0.43517-0.09181-0.86438-0.21026-1.2891-0.35156 1.0881 0.73142 4.0872 1.2861 6.068 0.79777 3.7616-0.92745 7.5687-2.6789 9.4984-6.6982 2.9574-6.5276 0.05302-14.246-6.4746-17.203-3.6091-1.6034-7.0252-1.4532-9.8613 1.0801z"/>
 </g>
 <path d="m44 18a4 4 0 0 1 -4 4 4 4 0 0 1 -4 -4 4 4 0 0 1 4 -4 4 4 0 0 1 4 4z" style="fill:#3f3f3f"/>
 <path d="m50 26a4 4 0 0 1 -4 4 4 4 0 0 1 -4 -4 4 4 0 0 1 4 -4 4 4 0 0 1 4 4z" style="fill:#3f3f3f"/>
 <path d="m52 36a4 4 0 0 1 -4 4 4 4 0 0 1 -4 -4 4 4 0 0 1 4 -4 4 4 0 0 1 4 4z" style="fill:#3f3f3f"/>
 <path d="m4.0488281 33c2.078e-4 0.005918 0.0017418 0.011661 0.0019531 0.017578 2.233e-4 -0.005852-2.068e-4 -0.011722 0-0.017578h-0.0019531zm0.0019531 0.017578c-0.0125101 0.327942-0.0507812 0.650348-0.0507812 0.982422 0 0.224037 0.0123968 0.445222 0.0175781 0.667969 0.0120984-0.216663 0.0249213-0.433291 0.0332031-0.650391-2.113e-4 -0.005917-0.0017453-0.01166-0.0019531-0.017578h0.0019531c-2.068e-4 0.005856 2.233e-4 0.011726 0 0.017578 0.5370097 15.033654 12.780789 26.982422 27.949219 26.982422 15.174 0 27.421219-11.958 27.949219-27 0.007796 0.222266 0.020756 0.443039 0.033203 0.664062 0.005121-0.221452 0.017578-0.441334 0.017578-0.664062 0-0.33768-0.039041-0.66528-0.050781-1-0.528 15.042-12.775219 27-27.949219 27-15.16843 0-27.412209-11.948768-27.949219-26.982422z" style="opacity:.2"/>
</svg>

<svg xmlns="http://www.w3.org/2000/svg" width="64" height="64" version="1">
 <rect style="fill:#eba229" width="56" height="56" x="-60" y="-60" rx="28" ry="28" transform="matrix(0,-1,-1,0,0,0)"/>
 <g style="opacity:0.2" transform="translate(0,1.0000001)">
  <g transform="matrix(-0.125574,0,0,-0.124584,47.532,50.164616)">
   <g>
    <g>
     <g>
      <g>
       <path d="m 20.314,12.539 c -0.83567,0.7607 -1.5166,1.6303 -1.7871,2.8809 -0.53798,2.4879 0.77013,5.9992 6.0527,8.3926 4.9711,2.2523 5.9094,5.5908 5.2031,7.7656 -0.71244,2.1934 -3.3358,4.1732 -7.4102,3.3359 -0.43517,-0.09181 -0.86438,-0.21026 -1.2891,-0.35156 1.0881,0.73142 4.0872,1.2861 6.068,0.79777 3.7616,-0.92745 7.5687,-2.6789 9.4984,-6.6982 2.9574,-6.5276 0.05302,-14.246 -6.4746,-17.203 -3.6091,-1.6034 -7.0252,-1.4532 -9.8613,1.0801 z" transform="matrix(11.498,0,0,11.498,-135.83,-118.41)"/>
      </g>
     </g>
    </g>
   </g>
  </g>
  <path d="m 44,18 a 4,4 0 0 1 -4,4 4,4 0 0 1 -4,-4 4,4 0 0 1 4,-4 4,4 0 0 1 4,4 z"/>
  <path d="m 50,26 a 4,4 0 0 1 -4,4 4,4 0 0 1 -4,-4 4,4 0 0 1 4,-4 4,4 0 0 1 4,4 z"/>
  <path d="m 52,36 a 4,4 0 0 1 -4,4 4,4 0 0 1 -4,-4 4,4 0 0 1 4,-4 4,4 0 0 1 4,4 z"/>
 </g>
 <path style="opacity:0.1;fill:#ffffff" d="M 32 4 C 16.488443 4 4 16.488 4 32 C 4 32.113556 4.0112848 32.224032 4.0175781 32.335938 C 4.3691112 17.134181 16.711164 5 32 5 C 47.288835 5 59.630889 17.134181 59.982422 32.335938 C 59.988693 32.224113 60 32.113448 60 32 C 60 16.488 47.511556 4 32 4 z"/>
 <g>
  <g style="fill:#3f3f3f" transform="matrix(-0.125574,0,0,-0.124584,47.532,50.164616)">
   <g>
    <g>
     <g>
      <g>
       <path d="m 20.314,12.539 c -0.83567,0.7607 -1.5166,1.6303 -1.7871,2.8809 -0.53798,2.4879 0.77013,5.9992 6.0527,8.3926 4.9711,2.2523 5.9094,5.5908 5.2031,7.7656 -0.71244,2.1934 -3.3358,4.1732 -7.4102,3.3359 -0.43517,-0.09181 -0.86438,-0.21026 -1.2891,-0.35156 1.0881,0.73142 4.0872,1.2861 6.068,0.79777 3.7616,-0.92745 7.5687,-2.6789 9.4984,-6.6982 2.9574,-6.5276 0.05302,-14.246 -6.4746,-17.203 -3.6091,-1.6034 -7.0252,-1.4532 -9.8613,1.0801 z" transform="matrix(11.498,0,0,11.498,-135.83,-118.41)"/>
      </g>
     </g>
    </g>
   </g>
  </g>
  <path style="fill:#3f3f3f" d="m 44,18 a 4,4 0 0 1 -4,4 4,4 0 0 1 -4,-4 4,4 0 0 1 4,-4 4,4 0 0 1 4,4 z"/>
  <path style="fill:#3f3f3f" d="m 50,26 a 4,4 0 0 1 -4,4 4,4 0 0 1 -4,-4 4,4 0 0 1 4,-4 4,4 0 0 1 4,4 z"/>
  <path style="fill:#3f3f3f" d="m 52,36 a 4,4 0 0 1 -4,4 4,4 0 0 1 -4,-4 4,4 0 0 1 4,-4 4,4 0 0 1 4,4 z"/>
 </g>
 <path style="opacity:0.2" d="M 4.0488281 33 C 4.0490359 33.005918 4.0505699 33.011661 4.0507812 33.017578 C 4.0510045 33.011726 4.0505744 33.005856 4.0507812 33 L 4.0488281 33 z M 4.0507812 33.017578 C 4.0382711 33.34552 4 33.667926 4 34 C 4 34.224037 4.0123968 34.445222 4.0175781 34.667969 C 4.0296765 34.451306 4.0424994 34.234678 4.0507812 34.017578 C 4.0505699 34.011661 4.0490359 34.005918 4.0488281 34 L 4.0507812 34 C 4.0505744 34.005856 4.0510045 34.011726 4.0507812 34.017578 C 4.5877909 49.051232 16.83157 61 32 61 C 47.174 61 59.421219 49.042 59.949219 34 C 59.957015 34.222266 59.969975 34.443039 59.982422 34.664062 C 59.987543 34.44261 60 34.222728 60 34 C 60 33.66232 59.960959 33.33472 59.949219 33 C 59.421219 48.042 47.174 60 32 60 C 16.83157 60 4.5877909 48.051232 4.0507812 33.017578 z"/>
</svg>
